findly-builder/apps/searchassist/src/assets/icons/content/carousel-index-manag.svg

<svg width="56" height="56" viewBox="0 0 56 56" fill="none" xmlns="http://www.w3.org/2000/svg">
<circle cx="28" cy="28" r="27.5" fill="white" stroke="#B893F2"/>
<path d="M38.0834 43.729H17.9167V11.479H38.0834V43.729Z" fill="#B893F2"/>
<path d="M39.9166 43.729H16.0833V14.1665H39.9166V43.729Z" fill="#7027E5"/>
<path d="M41.75 43.729H14.25V16.854H41.75V43.729Z" fill="#B893F2"/>
<path d="M17 21.3335H24.3333V23.1252H17V21.3335ZM26.1667 21.3335H32.5833V23.1252H26.1667V21.3335ZM17 24.9168H28V26.7085H17V24.9168Z" fill="#381472"/>
<path d="M31.6667 32.979V34.7707C31.6667 36.7496 30.0249 38.354 28 38.354C25.9751 38.354 24.3333 36.7496 24.3333 34.7707V32.979H14.25V43.729H41.75V32.979H31.6667Z" fill="#B893F2"/>
<path d="M28 40.146C24.9631 40.146 22.5 37.7389 22.5 34.771H12.4167C11.9107 34.771 11.5 35.1723 11.5 35.6668V42.8335C11.5 44.3179 12.7311 45.521 14.25 45.521H41.75C43.2689 45.521 44.5 44.3179 44.5 42.8335V35.6668C44.5 35.1723 44.0893 34.771 43.5833 34.771H33.5C33.5 37.7389 31.0369 40.146 28 40.146Z" fill="#FFDA2D"/>
</svg>

<svg width="56" height="56" fill="none" xmlns="http://www.w3.org/2000/svg"><circle cx="28" cy="28" r="27.5" fill="#fff" stroke="#B893F2"/><path d="M38.083 43.729H17.917v-32.25h20.166v32.25Z" fill="#B893F2"/><path d="M39.917 43.729H16.083V14.166h23.834V43.73Z" fill="#7027E5"/><path d="M41.75 43.729h-27.5V16.854h27.5v26.875Z" fill="#B893F2"/><path d="M17 21.334h7.333v1.791H17v-1.791Zm9.167 0h6.416v1.791h-6.416v-1.791ZM17 24.916h11v1.791H17v-1.791Z" fill="#381472"/><path d="M31.667 32.979v1.792c0 1.979-1.642 3.583-3.667 3.583s-3.667-1.604-3.667-3.583v-1.792H14.25v10.75h27.5v-10.75H31.667Z" fill="#B893F2"/><path d="M28 40.146c-3.037 0-5.5-2.407-5.5-5.375H12.417a.907.907 0 0 0-.917.896v7.166c0 1.485 1.231 2.688 2.75 2.688h27.5c1.519 0 2.75-1.203 2.75-2.688v-7.166a.907.907 0 0 0-.917-.896H33.5c0 2.968-2.463 5.375-5.5 5.375Z" fill="#FFDA2D"/></svg>
